src/img/calc/shoulders.svg

<svg width="50" height="62" viewBox="0 0 50 62" fill="none" xmlns="http://www.w3.org/2000/svg">
<g clip-path="url(#clip0)">
<path d="M29.4882 0C29.4882 0 29.6791 5.28148 33.6516 7.42469C41.1383 11.5198 46.1039 6.54444 50.0382 13.3951C50.0382 13.3951 47.9755 10.4864 44.8816 10.142C41.7876 9.8358 36.5546 10.6012 32.8877 8.19012C29.068 5.70247 29.4882 0 29.4882 0Z" fill="#3A4561"/>
<path d="M18.6402 1.41602C18.6402 1.41602 18.8694 8.037 13.0634 11.6345C9.28189 13.9691 3.55233 16.074 0 22.4271C0 22.4271 4.16348 17.2222 9.2437 14.8493C15.6608 11.8642 18.984 10.295 18.6402 1.41602Z" fill="#3A4561"/>
<path d="M19.9771 46.5765C19.0603 42.3666 15.9282 34.5975 5.72955 24.8765C5.72955 24.8765 21.3904 42.3666 17.7234 49.753C16.7303 51.7049 13.6364 55.3789 11.4973 61.3876C11.4973 61.3876 15.6608 53.8863 19.4805 49.5999C20.1299 48.8728 20.2445 47.9542 19.9771 46.5765Z" fill="#3A4561"/>
<path d="M46.3331 30.1196C46.3331 30.1196 46.6386 39.1517 45.6455 44.7011C44.6524 50.2122 47.9373 55.3406 47.4408 61.9999C47.4408 61.9999 46.7532 56.0295 45.6073 52.7382C44.4614 49.4468 43.8503 47.5715 44.7288 43.553C45.6073 39.5344 46.0657 32.8752 46.3331 30.1196Z" fill="#3A4561"/>
<path d="M27.6929 35.3628C27.6929 35.3628 32.9259 43.5146 28.8006 53.848C28.8006 53.848 31.1688 45.1221 27.6929 35.3628Z" fill="#3A4561"/>
<path d="M29.6791 21.9678C29.6791 21.9678 32.3147 30.9616 37.6241 31.5357C37.6241 31.5357 33.6516 31.5357 31.8946 28.3209C30.1375 25.106 29.6791 21.9678 29.6791 21.9678Z" fill="#3A4561"/>
<path d="M20.6646 21.9678C20.6646 21.9678 20.1299 27.4023 18.602 29.469C17.7998 30.5406 16.8067 31.1912 15.5844 31.4591C15.5844 31.4974 19.0603 29.6604 20.6646 21.9678Z" fill="#3A4561"/>
</g>
<defs>
<clipPath id="clip0">
<rect width="50" height="62" fill="white"/>
</clipPath>
</defs>
</svg>

<svg width="50" height="62" fill="none" xmlns="http://www.w3.org/2000/svg"><g clip-path="url(#clip0)" fill="#3A4561"><path d="M29.488 0s.191 5.281 4.164 7.425c7.486 4.095 12.452-.88 16.386 5.97 0 0-2.063-2.909-5.156-3.253-3.094-.306-8.327.46-11.994-1.952-3.82-2.488-3.4-8.19-3.4-8.19zM18.64 1.416s.23 6.621-5.577 10.218C9.282 13.97 3.553 16.075 0 22.427c0 0 4.163-5.205 9.244-7.578 6.417-2.985 9.74-4.554 9.396-13.433zM19.977 46.577c-.917-4.21-4.049-11.98-14.247-21.7 0 0 15.66 17.49 11.993 24.876-.993 1.952-4.087 5.626-6.226 11.635 0 0 4.164-7.502 7.983-11.788.65-.727.764-1.646.497-3.023zM46.333 30.12s.306 9.032-.688 14.581c-.993 5.511 2.292 10.64 1.796 17.299 0 0-.688-5.97-1.834-9.262-1.146-3.291-1.757-5.166-.878-9.185.878-4.019 1.337-10.678 1.604-13.433zM27.693 35.363s5.233 8.152 1.108 18.485c0 0 2.368-8.726-1.108-18.485zM29.68 21.968s2.635 8.994 7.944 9.568c0 0-3.972 0-5.73-3.215-1.756-3.215-2.215-6.353-2.215-6.353zM20.665 21.968s-.535 5.434-2.063 7.501c-.802 1.072-1.795 1.722-3.018 1.99 0 .038 3.476-1.799 5.08-9.491z"/></g><defs><clipPath id="clip0"><path fill="#fff" d="M0 0h50v62H0z"/></clipPath></defs></svg>
